_template/tools/arch_muted.cube
TITLE "arch_muted"
LUT_3D_SIZE 9
DOMAIN_MIN 0 0 0
DOMAIN_MAX 1 1 1
0.03210 0.03056 0.02773
0.15596 0.03854 0.03214
0.27960 0.04646 0.03683
0.40299 0.05431 0.04176
0.52616 0.06210 0.04696
0.64908 0.06983 0.05241
0.77903 0.07794 0.05846
0.94172 0.08802 0.06646
1.00000 0.09164 0.06930
0.07980 0.15230 0.05878
0.15835 0.15159 0.03223
0.28174 0.16098 0.03468
0.40491 0.16880 0.03974
0.52783 0.17653 0.04517
0.65052 0.18419 0.05086
0.78022 0.19224 0.05718
0.94260 0.20224 0.06551
1.00000 0.20577 0.06847
0.12624 0.27408 0.08860
0.20355 0.27455 0.07066
0.28365 0.27225 0.03786
0.40658 0.28291 0.03890
0.52927 0.29083 0.04393
0.65173 0.29848 0.04971
0.78118 0.30647 0.05623
0.94324 0.31639 0.06487
1.00000 0.31985 0.06795
0.17227 0.39580 0.11848
0.25995 0.39623 0.11352
0.32212 0.39660 0.07185
0.40802 0.39263 0.04457
0.53048 0.40424 0.04473
0.65270 0.41247 0.04950
0.78190 0.42056 0.05586
0.94365 0.43045 0.06464
1.00000 0.43387 0.06782
0.21791 0.51748 0.14844
0.31380 0.51785 0.15176
0.37494 0.51817 0.11731
0.44376 0.51844 0.07607
0.53145 0.51271 0.05233
0.65344 0.52505 0.05198
0.78239 0.53415 0.05677
0.94382 0.54431 0.06509
1.00000 0.54774 0.06830
0.26317 0.63910 0.17847
0.36491 0.63942 0.18716
0.43127 0.63969 0.16221
0.49107 0.63991 0.12004
0.56630 0.64007 0.08260
0.65394 0.63251 0.06117
0.78264 0.64600 0.06069
0.94376 0.65760 0.06692
1.00000 0.66120 0.06989
0.31069 0.76787 0.21037
0.41692 0.76813 0.22298
0.48994 0.76835 0.20681
0.54858 0.76851 0.16973
0.61192 0.76862 0.12746
0.69085 0.76867 0.09306
0.78265 0.75908 0.07168
0.94344 0.77582 0.07186
1.00000 0.78016 0.07391
0.36972 0.92936 0.25053
0.47999 0.92956 0.26659
0.56064 0.92970 0.25903
0.62301 0.92979 0.23055
0.68092 0.92983 0.19029
0.74589 0.92982 0.14914
0.82916 0.92974 0.11351
0.94267 0.91742 0.08658
1.00000 0.92469 0.08555
0.39537 1.00000 0.26814
0.50696 1.00000 0.28533
0.59048 1.00000 0.28080
0.65511 1.00000 0.25600
0.71274 1.00000 0.21803
0.77414 1.00000 0.17634
0.85102 1.00000 0.13710
0.96799 1.00000 0.10247
1.00000 0.98487 0.09434
0.04136 0.03791 0.14549
0.15835 0.03918 0.14352
0.28174 0.04704 0.14846
0.40491 0.05482 0.15365
0.52783 0.06255 0.15910
0.65052 0.07021 0.16481
0.78022 0.07826 0.17113
0.94260 0.08826 0.17947
1.00000 0.09179 0.18243
0.04441 0.15283 0.14299
0.16049 0.15372 0.14123
0.28365 0.16152 0.14638
0.40658 0.16925 0.15183
0.52927 0.17691 0.15754
0.65173 0.18451 0.16350
0.78118 0.19249 0.17009
0.94324 0.20241 0.17877
1.00000 0.20587 0.18186
0.06675 0.27455 0.14763
0.20871 0.27498 0.17604
0.28533 0.27454 0.14706
0.40802 0.28358 0.15047
0.53048 0.29121 0.15629
0.65270 0.29875 0.16248
0.78190 0.30667 0.16933
0.94365 0.31650 0.17834
1.00000 0.31990 0.18157
0.09889 0.39623 0.15887
0.25540 0.39660 0.20706
0.32743 0.39692 0.18474
0.40923 0.39481 0.15425
0.53145 0.40513 0.15622
0.65344 0.41286 0.16202
0.78239 0.42076 0.16896
0.94382 0.43052 0.17824
1.00000 0.43389 0.18161
0.13250 0.51785 0.17390
0.30083 0.51817 0.23752
0.38348 0.51844 0.22923
0.44575 0.51866 0.18811
0.53219 0.51477 0.16254
0.65394 0.52608 0.16358
0.78264 0.53457 0.16950
0.94376 0.54442 0.17865
1.00000 0.54778 0.18211
0.16591 0.63942 0.19053
0.34563 0.63969 0.26790
0.43743 0.63991 0.26903
0.49768 0.64007 0.23442
0.56663 0.64018 0.19438
0.65420 0.63443 0.17189
0.78266 0.64707 0.17259
0.94347 0.65794 0.18012
1.00000 0.66142 0.18348
0.20079 0.76813 0.20897
0.39255 0.76835 0.30009
0.49142 0.76851 0.30773
0.55693 0.76862 0.28312
0.61624 0.76867 0.24197
0.69033 0.76868 0.20512
0.78242 0.76085 0.18296
0.94290 0.77673 0.18438
1.00000 0.78083 0.18695
0.25484 0.92956 0.24379
0.45073 0.92970 0.34056
0.55581 0.92979 0.35356
0.62971 0.92983 0.33986
0.68849 0.92982 0.30558
0.74931 0.92975 0.26418
0.82835 0.92962 0.22641
0.94181 0.91900 0.19856
1.00000 0.92620 0.19784
0.28143 1.00000 0.26234
0.47587 1.00000 0.35822
0.58299 1.00000 0.37295
0.66035 1.00000 0.36317
0.72077 1.00000 0.33274
0.77921 1.00000 0.29227
0.85163 1.00000 0.25126
0.96549 1.00000 0.21491
1.00000 0.98674 0.20663
0.05070 0.04551 0.26383
0.16654 0.04580 0.26120
0.28365 0.04755 0.26035
0.40658 0.05528 0.26580
0.52927 0.06294 0.27151
0.65173 0.07054 0.27747
0.78118 0.07852 0.28406
0.94324 0.08843 0.29274
1.00000 0.09189 0.29583
0.05256 0.15978 0.26120
0.16819 0.16004 0.25887
0.28533 0.16198 0.25853
0.40802 0.16964 0.26423
0.53048 0.17724 0.27019
0.65270 0.18477 0.27641
0.78190 0.19269 0.28328
0.94365 0.20252 0.29230
1.00000 0.20593 0.29552
0.05582 0.27498 0.25947
0.17139 0.27535 0.25763
0.28677 0.27632 0.25703
0.40923 0.28394 0.26292
0.53145 0.29147 0.26914
0.65344 0.29895 0.27561
0.78239 0.30679 0.28275
0.94382 0.31654 0.29211
1.00000 0.31991 0.29549
0.07250 0.39660 0.26327
0.19503 0.39692 0.26385
0.33388 0.39719 0.29362
0.41020 0.39684 0.26428
0.53219 0.40561 0.26856
0.65394 0.41306 0.27514
0.78264 0.42084 0.28251
0.94376 0.43050 0.29220
1.00000 0.43384 0.29575
0.09776 0.51817 0.26960
0.22684 0.51844 0.27680
0.38108 0.51866 0.32616
0.45024 0.51882 0.30184
0.53269 0.51672 0.27303
0.65420 0.52678 0.27585
0.78266 0.53476 0.28283
0.94347 0.54439 0.29266
1.00000 0.54772 0.29636
0.12742 0.63969 0.27962
0.25945 0.63991 0.29285
0.42604 0.64007 0.35732
0.50587 0.64018 0.34761
0.56800 0.64024 0.30729
0.65423 0.63626 0.28289
0.78244 0.64786 0.28504
0.94294 0.65806 0.29387
1.00000 0.66146 0.29760
0.16066 0.76835 0.29327
0.29363 0.76851 0.31119
0.47264 0.76862 0.38998
0.56273 0.76867 0.39090
0.62259 0.76868 0.35738
0.69032 0.76863 0.31800
0.78195 0.76254 0.29451
0.94212 0.77741 0.29737
1.00000 0.78129 0.30052
0.20300 0.92970 0.31322
0.33645 0.92979 0.33576
0.53012 0.92983 0.43085
0.62934 0.92982 0.44006
0.69639 0.92975 0.41912
0.75435 0.92963 0.38022
0.82798 0.92945 0.34007
0.94071 0.92051 0.31081
1.00000 0.92761 0.31043
0.22143 1.00000 0.32255
0.36208 1.00000 0.35386
0.55487 1.00000 0.44865
0.65708 1.00000 0.46043
0.72798 1.00000 0.44446
0.78583 1.00000 0.40875
0.85316 1.00000 0.36643
0.96287 1.00000 0.32773
1.00000 0.98863 0.31918
0.05984 0.05308 0.38245
0.17547 0.05334 0.38012
0.29090 0.05356 0.37807
0.40802 0.05566 0.37821
0.53048 0.06326 0.38417
0.65270 0.07080 0.39039
0.78190 0.07871 0.39725
0.94365 0.08854 0.40627
1.00000 0.09195 0.40950
0.06149 0.16731 0.38012
0.17692 0.16754 0.37807
0.29215 0.16773 0.37630
0.40923 0.16996 0.37689
0.53145 0.17750 0.38311
0.65344 0.18497 0.38959
0.78239 0.19282 0.39672
0.94382 0.20256 0.40608
1.00000 0.20593 0.40946
0.06298 0.28154 0.37807
0.17817 0.28171 0.37630
0.29319 0.28187 0.37483
0.41020 0.28420 0.37584
0.53219 0.29167 0.38231
0.65394 0.29908 0.38904
0.78264 0.30686 0.39645
0.94376 0.31652 0.40615
1.00000 0.31986 0.40970
0.06632 0.39692 0.37703
0.18134 0.39719 0.37575
0.29634 0.39741 0.37470
0.41094 0.39835 0.37513
0.53269 0.40578 0.38177
0.65420 0.41313 0.38875
0.78266 0.42084 0.39643
0.94347 0.43042 0.40647
1.00000 0.43375 0.41021
0.08047 0.51844 0.38128
0.19800 0.51866 0.38041
0.32047 0.51882 0.38231
0.45685 0.51893 0.41273
0.53295 0.51853 0.38387
0.65423 0.52707 0.38895
0.78244 0.53476 0.39674
0.94294 0.54425 0.40709
1.00000 0.54758 0.41101
0.10090 0.63991 0.38640
0.22297 0.64007 0.38783
0.35153 0.64018 0.39643
0.50405 0.64024 0.44644
0.57193 0.64025 0.42196
0.65403 0.63800 0.39418
0.78199 0.64832 0.39815
0.94217 0.65799 0.40817
1.00000 0.66135 0.41224
0.12756 0.76851 0.39433
0.25369 0.76862 0.39959
0.38493 0.76867 0.41421
0.55092 0.76868 0.48000
0.63041 0.76863 0.47135
0.69154 0.76853 0.43210
0.78125 0.76415 0.40634
0.94110 0.77783 0.41093
1.00000 0.78150 0.41467
0.16503 0.92979 0.40809
0.29427 0.92983 0.41826
0.42621 0.92982 0.43801
0.60795 0.92975 0.52143
0.70030 0.92963 0.52568
0.76129 0.92946 0.49659
0.82851 0.92922 0.45476
0.93939 0.92194 0.42333
1.00000 0.92890 0.42337
0.18208 1.00000 0.41520
0.31210 1.00000 0.42729
0.44392 1.00000 0.44864
0.63240 1.00000 0.53944
0.72905 1.00000 0.54753
0.79355 1.00000 0.52429
0.85620 1.00000 0.48279
0.96021 1.00000 0.44098
1.00000 0.99051 0.43199
0.06877 0.06061 0.50137
0.18420 0.06084 0.49932
0.29942 0.06103 0.49755
0.41444 0.06120 0.49608
0.53145 0.06352 0.49709
0.65344 0.07100 0.50356
0.78239 0.07884 0.51070
0.94382 0.08859 0.52006
1.00000 0.09196 0.52344
0.07022 0.17481 0.49932
0.18545 0.17501 0.49755
0.30047 0.17517 0.49608
0.41528 0.17531 0.49489
0.53219 0.17770 0.49629
0.65394 0.18511 0.50301
0.78264 0.19289 0.51042
0.94376 0.20255 0.52012
1.00000 0.20589 0.52367
0.07148 0.28899 0.49755
0.18649 0.28915 0.49608
0.30131 0.28928 0.49489
0.41592 0.28938 0.49399
0.53269 0.29181 0.49574
0.65420 0.29915 0.50273
0.78266 0.30686 0.51040
0.94347 0.31644 0.52045
1.00000 0.31977 0.52418
0.07261 0.40321 0.49608
0.18737 0.40329 0.49489
0.30195 0.40336 0.49399
0.41635 0.40342 0.49338
0.53295 0.40585 0.49545
0.65423 0.41314 0.50269
0.78244 0.42078 0.51064
0.94294 0.43027 0.52103
1.00000 0.43361 0.52496
0.07590 0.51866 0.49566
0.19043 0.51882 0.49493
0.30478 0.51893 0.49446
0.41915 0.51899 0.49422
0.53298 0.51981 0.49551
0.65403 0.52706 0.50292
0.78199 0.53463 0.51114
0.94217 0.54404 0.52186
1.00000 0.54739 0.52600
0.08853 0.64007 0.50052
0.20413 0.64018 0.49998
0.32103 0.64024 0.49996
0.44288 0.64025 0.50282
0.57816 0.64020 0.53389
0.65359 0.63960 0.50580
0.78130 0.64839 0.51209
0.94117 0.65775 0.52301
1.00000 0.66113 0.52736
0.10694 0.76862 0.50597
0.22532 0.76867 0.50640
0.34690 0.76868 0.50887
0.47473 0.76863 0.51859
0.62722 0.76853 0.57002
0.69562 0.76837 0.54800
0.78031 0.76568 0.51844
0.93985 0.77793 0.52515
1.00000 0.78146 0.52947
0.13625 0.92983 0.51504
0.25850 0.92982 0.51808
0.38461 0.92975 0.52529
0.51508 0.92963 0.54177
0.68424 0.92946 0.61233
0.76825 0.92924 0.60961
0.83084 0.92895 0.57088
0.93782 0.92330 0.53611
1.00000 0.93003 0.53672
0.15056 1.00000 0.51999
0.27425 1.00000 0.52447
0.40167 1.00000 0.53376
0.53247 1.00000 0.55239
0.70854 1.00000 0.63064
0.79860 1.00000 0.63379
0.86152 1.00000 0.60028
0.95761 1.00000 0.55474
1.00000 0.99240 0.54507
0.07750 0.06811 0.62057
0.19272 0.06831 0.61880
0.30774 0.06847 0.61733
0.42256 0.06861 0.61614
0.53717 0.06870 0.61524
0.65394 0.07113 0.61699
0.78264 0.07891 0.62440
0.94376 0.08857 0.63410
1.00000 0.09191 0.63765
0.07875 0.18229 0.61880
0.19377 0.18245 0.61733
0.30858 0.18258 0.61614
0.42320 0.18268 0.61524
0.53760 0.18275 0.61463
0.65420 0.18518 0.61670
0.78266 0.19289 0.62438
0.94347 0.20247 0.63442
1.00000 0.20580 0.63815
0.07979 0.29643 0.61733
0.19461 0.29656 0.61614
0.30922 0.29665 0.61524
0.42363 0.29672 0.61463
0.53783 0.29676 0.61431
0.65423 0.29916 0.61667
0.78244 0.30681 0.62462
0.94294 0.31630 0.63500
1.00000 0.31963 0.63893
0.08066 0.41055 0.61614
0.19525 0.41064 0.61524
0.30966 0.41070 0.61463
0.42386 0.41073 0.61431
0.53786 0.41074 0.61427
0.65403 0.41308 0.61689
0.78199 0.42066 0.62511
0.94217 0.43007 0.63583
1.00000 0.43342 0.63998
0.08147 0.52477 0.61524
0.19578 0.52476 0.61463
0.30992 0.52474 0.61431
0.42389 0.52472 0.61427
0.53768 0.52469 0.61452
0.65359 0.52694 0.61737
0.78130 0.53445 0.62586
0.94117 0.54377 0.63693
1.00000 0.54715 0.64129
0.08456 0.64018 0.61538
0.19862 0.64024 0.61519
0.31247 0.64025 0.61527
0.42612 0.64020 0.61560
0.53976 0.64010 0.61618
0.65291 0.64071 0.61819
0.78037 0.64818 0.62687
0.93993 0.65742 0.63828
1.00000 0.66084 0.64288
0.09686 0.76867 0.62117
0.21147 0.76868 0.62118
0.32645 0.76863 0.62148
0.44276 0.76853 0.62233
0.56385 0.76837 0.62608
0.70068 0.76817 0.65927
0.77914 0.76709 0.63085
0.93836 0.77770 0.64013
1.00000 0.78120 0.64494
0.11788 0.92982 0.62866
0.23467 0.92975 0.62940
0.35313 0.92963 0.63111
0.47491 0.92946 0.63528
0.60240 0.92924 0.64693
0.75903 0.92896 0.70355
0.83640 0.92862 0.68829
0.93602 0.92458 0.64917
1.00000 0.93091 0.65057
0.12887 1.00000 0.63240
0.24687 1.00000 0.63376
0.36698 1.00000 0.63658
0.49073 1.00000 0.64275
0.61946 1.00000 0.65730
0.78331 1.00000 0.72226
0.86876 1.00000 0.71655
0.95540 1.00000 0.66926
1.00000 0.99429 0.65840
0.08652 0.07603 0.74714
0.20153 0.07619 0.74568
0.31633 0.07632 0.74451
0.43093 0.07642 0.74363
0.54533 0.07648 0.74303
0.65952 0.07652 0.74273
0.78265 0.07891 0.74511
0.94344 0.08849 0.75517
1.00000 0.09181 0.75892
0.08755 0.19016 0.74568
0.20236 0.19029 0.74451
0.31696 0.19039 0.74363
0.43135 0.19046 0.74303
0.54555 0.19049 0.74273
0.65954 0.19049 0.74271
0.78242 0.19283 0.74536
0.94290 0.20231 0.75577
1.00000 0.20565 0.75971
0.08838 0.30427 0.74451
0.20298 0.30437 0.74363
0.31738 0.30443 0.74303
0.43157 0.30447 0.74273
0.54556 0.30447 0.74271
0.65935 0.30444 0.74297
0.78195 0.30667 0.74587
0.94212 0.31608 0.75662
1.00000 0.31943 0.76077
0.08902 0.41835 0.74363
0.20341 0.41841 0.74303
0.31760 0.41844 0.74273
0.43159 0.41844 0.74271
0.54537 0.41841 0.74297
0.65895 0.41835 0.74353
0.78125 0.42046 0.74664
0.94110 0.42978 0.75772
1.00000 0.43316 0.76210
0.08948 0.53243 0.74303
0.20364 0.53244 0.74273
0.31762 0.53242 0.74271
0.43140 0.53239 0.74297
0.54498 0.53233 0.74353
0.65836 0.53223 0.74437
0.78031 0.53418 0.74766
0.93985 0.54342 0.75909
1.00000 0.54684 0.76371
0.08995 0.64663 0.74273
0.20382 0.64655 0.74271
0.31751 0.64644 0.74297
0.43103 0.64633 0.74353
0.54438 0.64621 0.74437
0.65756 0.64608 0.74550
0.77914 0.64784 0.74894
0.93836 0.65699 0.76070
1.00000 0.66048 0.76558
0.09274 0.76867 0.74335
0.20630 0.76862 0.74374
0.31964 0.76852 0.74439
0.43276 0.76836 0.74532
0.54567 0.76815 0.74650
0.65846 0.76789 0.74794
0.77764 0.76814 0.75064
0.93653 0.77723 0.76270
1.00000 0.78079 0.76786
0.10734 0.92974 0.75147
0.22129 0.92962 0.75212
0.33537 0.92945 0.75305
0.44996 0.92922 0.75433
0.56603 0.92895 0.75628
0.68662 0.92862 0.76119
0.83656 0.92821 0.80049
0.93386 0.92585 0.76921
1.00000 0.93138 0.77200
0.11521 1.00000 0.75501
0.22969 1.00000 0.75586
0.34463 1.00000 0.75706
0.46062 1.00000 0.75884
0.57900 1.00000 0.76200
0.70268 1.00000 0.77006
0.86109 1.00000 0.81981
0.95458 1.00000 0.79213
1.00000 0.99630 0.77874
0.09752 0.08590 0.90642
0.21225 0.08602 0.90534
0.32679 0.08611 0.90455
0.44112 0.08617 0.90405
0.55524 0.08619 0.90384
0.66917 0.08618 0.90391
0.78961 0.08614 0.90431
0.94267 0.08828 0.90750
1.00000 0.09161 0.91151
0.09828 0.20000 0.90534
0.21281 0.20008 0.90455
0.32714 0.20014 0.90405
0.44127 0.20016 0.90384
0.55519 0.20016 0.90391
0.66891 0.20012 0.90428
0.78914 0.20004 0.90497
0.94181 0.20202 0.90843
1.00000 0.20538 0.91266
0.09884 0.31406 0.90455
0.21317 0.31412 0.90405
0.32729 0.31414 0.90384
0.44122 0.31413 0.90391
0.55493 0.31409 0.90428
0.66845 0.31402 0.90493
0.78846 0.31391 0.90593
0.94071 0.31570 0.90963
1.00000 0.31910 0.91408
0.09920 0.42809 0.90405
0.21332 0.42812 0.90384
0.32724 0.42811 0.90391
0.44096 0.42807 0.90428
0.55447 0.42799 0.90493
0.66778 0.42789 0.90586
0.78758 0.42774 0.90717
0.93939 0.42932 0.91107
1.00000 0.43276 0.91578
0.09936 0.54211 0.90384
0.21327 0.54209 0.90391
0.32699 0.54204 0.90428
0.44050 0.54197 0.90493
0.55381 0.54186 0.90586
0.66692 0.54173 0.90709
0.78650 0.54155 0.90870
0.93782 0.54287 0.91277
1.00000 0.54638 0.91774
0.09937 0.65613 0.90391
0.21305 0.65605 0.90428
0.32654 0.65596 0.90493
0.43984 0.65584 0.90586
0.55294 0.65570 0.90709
0.66584 0.65554 0.90860
0.78521 0.65532 0.91051
0.93602 0.65637 0.91473
1.00000 0.65995 0.91997
0.09935 0.77701 0.90431
0.21274 0.77685 0.90497
0.32594 0.77667 0.90593
0.43897 0.77647 0.90717
0.55182 0.77627 0.90870
0.66449 0.77605 0.91051
0.78362 0.77580 0.91275
0.93386 0.77651 0.91709
1.00000 0.78019 0.92263
0.10154 0.92957 0.90565
0.21449 0.92938 0.90675
0.32722 0.92914 0.90813
0.43971 0.92884 0.90977
0.55198 0.92850 0.91168
0.66402 0.92810 0.91386
0.78245 0.92762 0.91646
0.93078 0.92715 0.92047
1.00000 0.93099 0.92639
0.10683 1.00000 0.90974
0.21974 1.00000 0.91100
0.33245 1.00000 0.91253
0.44499 1.00000 0.91432
0.55740 1.00000 0.91636
0.66982 1.00000 0.91866
0.78953 1.00000 0.92143
0.95671 1.00000 0.94299
1.00000 0.99883 0.93016
0.10246 0.09043 0.97989
0.21707 0.09053 0.97899
0.33148 0.09060 0.97838
0.44568 0.09063 0.97806
0.55969 0.09064 0.97802
0.67348 0.09061 0.97827
0.79380 0.09055 0.97885
0.94444 0.09041 0.98003
1.00000 0.09149 0.98190
0.10310 0.20450 0.97899
0.21750 0.20457 0.97838
0.33171 0.20461 0.97806
0.44571 0.20461 0.97802
0.55951 0.20459 0.97827
0.67310 0.20453 0.97881
0.79320 0.20443 0.97969
0.94357 0.20425 0.98126
1.00000 0.20523 0.98322
0.10353 0.31855 0.97838
0.21773 0.31858 0.97806
0.33174 0.31859 0.97802
0.44553 0.31856 0.97827
0.55913 0.31850 0.97881
0.67252 0.31841 0.97963
0.79240 0.31828 0.98082
0.94250 0.31806 0.98277
1.00000 0.31891 0.98480
0.10376 0.43256 0.97806
0.21776 0.43256 0.97802
0.33156 0.43254 0.97827
0.44515 0.43248 0.97881
0.55854 0.43238 0.97963
0.67173 0.43226 0.98075
0.79139 0.43209 0.98224
0.94122 0.43184 0.98457
1.00000 0.43255 0.98666
0.10380 0.54655 0.97802
0.21759 0.54651 0.97827
0.33118 0.54645 0.97881
0.44457 0.54636 0.97963
0.55775 0.54624 0.98075
0.67073 0.54608 0.98215
0.79018 0.54588 0.98394
0.93974 0.54558 0.98665
1.00000 0.54614 0.98879
0.10366 0.66053 0.97827
0.21722 0.66045 0.97881
0.33060 0.66034 0.97963
0.44378 0.66021 0.98075
0.55676 0.66006 0.98215
0.66954 0.65987 0.98383
0.78877 0.65963 0.98594
0.93806 0.65929 0.98903
1.00000 0.65968 0.99119
0.10339 0.78131 0.97885
0.21669 0.78116 0.97969
0.32981 0.78099 0.98082
0.44275 0.78080 0.98224
0.55549 0.78059 0.98394
0.66805 0.78036 0.98594
0.78705 0.78009 0.98836
0.93605 0.77970 0.99186
1.00000 0.77989 0.99402
0.10329 0.93314 0.98003
0.21621 0.93289 0.98126
0.32894 0.93260 0.98277
0.44147 0.93229 0.98457
0.55381 0.93195 0.98665
0.66597 0.93159 0.98903
0.78460 0.93121 0.99186
0.93321 0.93074 0.99586
1.00000 0.93064 0.99801
0.10478 1.00000 0.98080
0.21747 1.00000 0.98225
0.32994 1.00000 0.98397
0.44218 1.00000 0.98596
0.55419 1.00000 0.98822
0.66598 1.00000 0.99076
0.78415 1.00000 0.99374
0.93206 1.00000 0.99792
1.00000 1.00000 1.00000
