_template/tools/arch_muted.cube
TITLE "arch_muted"
LUT_3D_SIZE 5
DOMAIN_MIN 0 0 0
DOMAIN_MAX 1 1 1
0.03210 0.03056 0.02773
0.27960 0.04646 0.03683
0.52616 0.06210 0.04696
0.77903 0.07794 0.05846
1.00000 0.09164 0.06930
0.12624 0.27408 0.08860
0.28365 0.27225 0.03786
0.52927 0.29083 0.04393
0.78118 0.30647 0.05623
1.00000 0.31985 0.06795
0.21791 0.51748 0.14844
0.37494 0.51817 0.11731
0.53145 0.51271 0.05233
0.78239 0.53415 0.05677
1.00000 0.54774 0.06830
0.31069 0.76787 0.21037
0.48994 0.76835 0.20681
0.61192 0.76862 0.12746
0.78265 0.75908 0.07168
1.00000 0.78016 0.07391
0.39537 1.00000 0.26814
0.59048 1.00000 0.28080
0.71274 1.00000 0.21803
0.85102 1.00000 0.13710
1.00000 0.98487 0.09434
0.05070 0.04551 0.26383
0.28365 0.04755 0.26035
0.52927 0.06294 0.27151
0.78118 0.07852 0.28406
1.00000 0.09189 0.29583
0.05582 0.27498 0.25947
0.28677 0.27632 0.25703
0.53145 0.29147 0.26914
0.78239 0.30679 0.28275
1.00000 0.31991 0.29549
0.09776 0.51817 0.26960
0.38108 0.51866 0.32616
0.53269 0.51672 0.27303
0.78266 0.53476 0.28283
1.00000 0.54772 0.29636
0.16066 0.76835 0.29327
0.47264 0.76862 0.38998
0.62259 0.76868 0.35738
0.78195 0.76254 0.29451
1.00000 0.78129 0.30052
0.22143 1.00000 0.32255
0.55487 1.00000 0.44865
0.72798 1.00000 0.44446
0.85316 1.00000 0.36643
1.00000 0.98863 0.31918
0.06877 0.06061 0.50137
0.29942 0.06103 0.49755
0.53145 0.06352 0.49709
0.78239 0.07884 0.51070
1.00000 0.09196 0.52344
0.07148 0.28899 0.49755
0.30131 0.28928 0.49489
0.53269 0.29181 0.49574
0.78266 0.30686 0.51040
1.00000 0.31977 0.52418
0.07590 0.51866 0.49566
0.30478 0.51893 0.49446
0.53298 0.51981 0.49551
0.78199 0.53463 0.51114
1.00000 0.54739 0.52600
0.10694 0.76862 0.50597
0.34690 0.76868 0.50887
0.62722 0.76853 0.57002
0.78031 0.76568 0.51844
1.00000 0.78146 0.52947
0.15056 1.00000 0.51999
0.40167 1.00000 0.53376
0.70854 1.00000 0.63064
0.86152 1.00000 0.60028
1.00000 0.99240 0.54507
0.08652 0.07603 0.74714
0.31633 0.07632 0.74451
0.54533 0.07648 0.74303
0.78265 0.07891 0.74511
1.00000 0.09181 0.75892
0.08838 0.30427 0.74451
0.31738 0.30443 0.74303
0.54556 0.30447 0.74271
0.78195 0.30667 0.74587
1.00000 0.31943 0.76077
0.08948 0.53243 0.74303
0.31762 0.53242 0.74271
0.54498 0.53233 0.74353
0.78031 0.53418 0.74766
1.00000 0.54684 0.76371
0.09274 0.76867 0.74335
0.31964 0.76852 0.74439
0.54567 0.76815 0.74650
0.77764 0.76814 0.75064
1.00000 0.78079 0.76786
0.11521 1.00000 0.75501
0.34463 1.00000 0.75706
0.57900 1.00000 0.76200
0.86109 1.00000 0.81981
1.00000 0.99630 0.77874
0.10246 0.09043 0.97989
0.33148 0.09060 0.97838
0.55969 0.09064 0.97802
0.79380 0.09055 0.97885
1.00000 0.09149 0.98190
0.10353 0.31855 0.97838
0.33174 0.31859 0.97802
0.55913 0.31850 0.97881
0.79240 0.31828 0.98082
1.00000 0.31891 0.98480
0.10380 0.54655 0.97802
0.33118 0.54645 0.97881
0.55775 0.54624 0.98075
0.79018 0.54588 0.98394
1.00000 0.54614 0.98879
0.10339 0.78131 0.97885
0.32981 0.78099 0.98082
0.55549 0.78059 0.98394
0.78705 0.78009 0.98836
1.00000 0.77989 0.99402
0.10478 1.00000 0.98080
0.32994 1.00000 0.98397
0.55419 1.00000 0.98822
0.78415 1.00000 0.99374
1.00000 1.00000 1.00000
