_template/tools/arch_muted.cube
TITLE "arch_muted"
LUT_3D_SIZE 33
DOMAIN_MIN 0 0 0
DOMAIN_MAX 1 1 1
0.03210 0.03056 0.02773
0.06308 0.03256 0.02880
0.09406 0.03456 0.02990
0.12502 0.03655 0.03101
0.15596 0.03854 0.03214
0.18689 0.04053 0.03329
0.21781 0.04251 0.03445
0.24871 0.04449 0.03563
0.27960 0.04646 0.03683
0.31047 0.04843 0.03804
0.34132 0.05039 0.03926
0.37217 0.05235 0.04050
0.40299 0.05431 0.04176
0.43381 0.05626 0.04304
0.46460 0.05821 0.04433
0.49539 0.06016 0.04563
0.52616 0.06210 0.04696
0.55691 0.06404 0.04829
0.58765 0.06597 0.04965
0.61837 0.06790 0.05102
0.64908 0.06983 0.05241
0.67978 0.07175 0.05381
0.71046 0.07367 0.05523
0.74112 0.07558 0.05666
0.77903 0.07794 0.05846
0.83223 0.08125 0.06102
0.87601 0.08396 0.06317
0.91205 0.08619 0.06496
0.94172 0.08802 0.06646
0.96614 0.08953 0.06770
0.98625 0.09077 0.06873
1.00000 0.09162 0.06941
1.00000 0.09164 0.06930
0.04435 0.06093 0.03621
0.06375 0.06089 0.02870
0.09471 0.06322 0.02925
0.12565 0.06522 0.03034
0.15658 0.06720 0.03148
0.18750 0.06918 0.03264
0.21840 0.07116 0.03382
0.24928 0.07313 0.03501
0.28015 0.07510 0.03622
0.31101 0.07707 0.03745
0.34185 0.07903 0.03869
0.37268 0.08099 0.03995
0.40349 0.08294 0.04122
0.43429 0.08489 0.04251
0.46507 0.08683 0.04382
0.49584 0.08878 0.04514
0.52660 0.09071 0.04648
0.55734 0.09265 0.04783
0.58806 0.09458 0.04920
0.61877 0.09650 0.05059
0.64946 0.09842 0.05199
0.68014 0.10034 0.05341
0.71081 0.10225 0.05484
0.74146 0.10416 0.05629
0.77935 0.10652 0.05811
0.83252 0.10982 0.06070
0.87628 0.11253 0.06287
0.91230 0.11475 0.06469
0.94196 0.11658 0.06620
0.96637 0.11808 0.06745
0.98647 0.11932 0.06849
1.00000 0.12016 0.06917
1.00000 0.12018 0.06907
0.05632 0.09139 0.04382
0.07432 0.09153 0.03764
0.09534 0.09114 0.02981
0.12627 0.09379 0.02992
0.15718 0.09584 0.03092
0.18808 0.09783 0.03205
0.21897 0.09981 0.03322
0.24984 0.10178 0.03442
0.28070 0.10374 0.03564
0.31154 0.10570 0.03688
0.34237 0.10766 0.03814
0.37318 0.10962 0.03941
0.40398 0.11156 0.04070
0.43476 0.11351 0.04201
0.46553 0.11545 0.04333
0.49628 0.11739 0.04466
0.52702 0.11932 0.04602
0.55775 0.12125 0.04739
0.58846 0.12318 0.04877
0.61915 0.12510 0.05018
0.64983 0.12702 0.05159
0.68050 0.12893 0.05303
0.71115 0.13084 0.05448
0.74178 0.13275 0.05595
0.77966 0.13510 0.05778
0.83280 0.13839 0.06040
0.87654 0.14109 0.06259
0.91255 0.14331 0.06443
0.94219 0.14514 0.06595
0.96659 0.14664 0.06722
0.98668 0.14787 0.06827
1.00000 0.14869 0.06895
1.00000 0.14871 0.06885
0.06810 0.12184 0.05131
0.08849 0.12198 0.04839
0.10444 0.12212 0.03754
0.12687 0.12137 0.03098
0.15777 0.12427 0.03080
0.18866 0.12642 0.03164
0.21953 0.12843 0.03273
0.25039 0.13041 0.03390
0.28123 0.13238 0.03511
0.31206 0.13434 0.03635
0.34287 0.13629 0.03762
0.37367 0.13824 0.03890
0.40445 0.14019 0.04020
0.43522 0.14213 0.04152
0.46597 0.14406 0.04286
0.49671 0.14600 0.04421
0.52743 0.14793 0.04558
0.55814 0.14985 0.04696
0.58884 0.15177 0.04837
0.61952 0.15369 0.04978
0.65019 0.15561 0.05122
0.68084 0.15752 0.05267
0.71147 0.15942 0.05413
0.74209 0.16132 0.05561
0.77995 0.16367 0.05747
0.83307 0.16696 0.06012
0.87679 0.16965 0.06233
0.91277 0.17187 0.06418
0.94240 0.17369 0.06572
0.96679 0.17519 0.06700
0.98687 0.17642 0.06807
1.00000 0.17722 0.06874
1.00000 0.17724 0.06865
0.07980 0.15230 0.05878
0.10231 0.15243 0.05807
0.11745 0.15257 0.04846
0.13541 0.15270 0.03800
0.15835 0.15159 0.03223
0.18922 0.15467 0.03184
0.22007 0.15693 0.03252
0.25092 0.15899 0.03353
0.28174 0.16098 0.03468
0.31256 0.16295 0.03590
0.34335 0.16491 0.03715
0.37414 0.16686 0.03844
0.40491 0.16880 0.03974
0.43566 0.17074 0.04107
0.46640 0.17267 0.04242
0.49712 0.17460 0.04378
0.52783 0.17653 0.04517
0.55853 0.17845 0.04656
0.58921 0.18037 0.04798
0.61987 0.18228 0.04941
0.65052 0.18419 0.05086
0.68116 0.18610 0.05233
0.71178 0.18800 0.05381
0.74239 0.18990 0.05530
0.78022 0.19224 0.05718
0.83332 0.19552 0.05985
0.87702 0.19821 0.06209
0.91299 0.20042 0.06396
0.94260 0.20224 0.06551
0.96698 0.20373 0.06681
0.98705 0.20496 0.06788
1.00000 0.20575 0.06855
1.00000 0.20577 0.06847
0.09146 0.18275 0.06623
0.11554 0.18288 0.06697
0.13163 0.18301 0.05944
0.14702 0.18314 0.04830
0.16671 0.18326 0.03880
0.18976 0.18178 0.03354
0.22060 0.18501 0.03301
0.25143 0.18739 0.03353
0.28224 0.18950 0.03446
0.31304 0.19152 0.03557
0.34382 0.19350 0.03678
0.37459 0.19545 0.03804
0.40535 0.19740 0.03934
0.43609 0.19934 0.04067
0.46681 0.20127 0.04202
0.49752 0.20320 0.04339
0.52821 0.20512 0.04478
0.55889 0.20704 0.04619
0.58956 0.20896 0.04762
0.62021 0.21087 0.04906
0.65085 0.21277 0.05053
0.68147 0.21467 0.05201
0.71208 0.21657 0.05350
0.74267 0.21847 0.05501
0.78049 0.22080 0.05691
0.83355 0.22408 0.05961
0.87723 0.22676 0.06187
0.91318 0.22897 0.06375
0.94278 0.23078 0.06532
0.96715 0.23227 0.06663
0.98721 0.23350 0.06771
1.00000 0.23428 0.06838
1.00000 0.23429 0.06831
0.10308 0.21319 0.07369
0.12832 0.21332 0.07542
0.14578 0.21345 0.06982
0.16053 0.21358 0.05947
0.17723 0.21370 0.04847
0.19814 0.21381 0.03980
0.22112 0.21196 0.03491
0.25193 0.21530 0.03427
0.28273 0.21779 0.03466
0.31351 0.21997 0.03551
0.34428 0.22202 0.03657
0.37503 0.22401 0.03776
0.40577 0.22598 0.03902
0.43650 0.22792 0.04033
0.46721 0.22986 0.04167
0.49790 0.23179 0.04304
0.52858 0.23371 0.04444
0.55925 0.23563 0.04585
0.58990 0.23754 0.04729
0.62053 0.23945 0.04875
0.65116 0.24135 0.05022
0.68176 0.24325 0.05171
0.71235 0.24514 0.05322
0.74293 0.24703 0.05474
0.78073 0.24936 0.05666
0.83378 0.25263 0.05938
0.87743 0.25531 0.06166
0.91337 0.25751 0.06357
0.94295 0.25932 0.06515
0.96730 0.26081 0.06647
0.98736 0.26203 0.06756
1.00000 0.26280 0.06824
1.00000 0.26282 0.06817
0.11468 0.24364 0.08114
0.14080 0.24376 0.08360
0.15960 0.24389 0.07961
0.17468 0.24401 0.07056
0.18986 0.24413 0.05939
0.20785 0.24424 0.04896
0.22961 0.24435 0.04096
0.25242 0.24211 0.03636
0.28320 0.24554 0.03564
0.31397 0.24814 0.03591
0.34472 0.25039 0.03667
0.37546 0.25248 0.03768
0.40618 0.25450 0.03884
0.43689 0.25647 0.04009
0.46759 0.25842 0.04140
0.49827 0.26036 0.04276
0.52894 0.26228 0.04415
0.55959 0.26420 0.04556
0.59022 0.26611 0.04700
0.62084 0.26802 0.04846
0.65145 0.26992 0.04995
0.68204 0.27181 0.05145
0.71262 0.27370 0.05297
0.74318 0.27559 0.05450
0.78096 0.27792 0.05643
0.83398 0.28118 0.05918
0.87762 0.28385 0.06148
0.91353 0.28605 0.06340
0.94310 0.28786 0.06500
0.96745 0.28934 0.06633
0.98749 0.29056 0.06743
1.00000 0.29133 0.06811
1.00000 0.29134 0.06805
0.12624 0.27408 0.08860
0.15306 0.27420 0.09161
0.17307 0.27432 0.08892
0.18889 0.27444 0.08127
0.20355 0.27455 0.07066
0.21965 0.27467 0.05952
0.23871 0.27477 0.04973
0.26110 0.27488 0.04224
0.28365 0.27225 0.03786
0.31441 0.27576 0.03709
0.34515 0.27845 0.03726
0.37587 0.28077 0.03794
0.40658 0.28291 0.03890
0.43728 0.28495 0.04003
0.46796 0.28694 0.04126
0.49862 0.28889 0.04257
0.52927 0.29083 0.04393
0.55991 0.29276 0.04533
0.59053 0.29467 0.04677
0.62114 0.29658 0.04823
0.65173 0.29848 0.04971
0.68231 0.30037 0.05122
0.71287 0.30226 0.05275
0.74342 0.30414 0.05429
0.78118 0.30647 0.05623
0.83417 0.30972 0.05900
0.87779 0.31239 0.06132
0.91369 0.31459 0.06326
0.94324 0.31639 0.06487
0.96757 0.31787 0.06621
0.98761 0.31909 0.06733
1.00000 0.31984 0.06800
1.00000 0.31985 0.06795
0.13779 0.30451 0.09606
0.16515 0.30463 0.09950
0.18623 0.30475 0.09787
0.20293 0.30487 0.09153
0.21766 0.30498 0.08184
0.23272 0.30509 0.07070
0.24979 0.30519 0.05990
0.26973 0.30529 0.05070
0.29257 0.30539 0.04363
0.31484 0.30237 0.03944
0.34556 0.30594 0.03862
0.37627 0.30872 0.03870
0.40696 0.31111 0.03930
0.43764 0.31329 0.04021
0.46831 0.31537 0.04131
0.49896 0.31737 0.04253
0.52960 0.31934 0.04383
0.56022 0.32128 0.04519
0.59083 0.32321 0.04660
0.62142 0.32512 0.04805
0.65199 0.32702 0.04953
0.68256 0.32892 0.05104
0.71311 0.33081 0.05257
0.74364 0.33269 0.05412
0.78138 0.33501 0.05607
0.83435 0.33826 0.05885
0.87794 0.34093 0.06119
0.91383 0.34311 0.06314
0.94337 0.34491 0.06477
0.96769 0.34639 0.06612
0.98771 0.34761 0.06724
1.00000 0.34835 0.06792
1.00000 0.34836 0.06788
0.14931 0.33495 0.10353
0.17712 0.33506 0.10731
0.19911 0.33518 0.10656
0.21673 0.33529 0.10139
0.23187 0.33540 0.09274
0.24650 0.33550 0.08204
0.26224 0.33560 0.07088
0.28020 0.33570 0.06053
0.30082 0.33580 0.05184
0.32401 0.33589 0.04511
0.34596 0.33248 0.04108
0.37665 0.33610 0.04023
0.40733 0.33896 0.04024
0.43800 0.34141 0.04077
0.46865 0.34364 0.04162
0.49928 0.34575 0.04268
0.52991 0.34778 0.04388
0.56051 0.34976 0.04518
0.59110 0.35170 0.04654
0.62168 0.35363 0.04796
0.65224 0.35554 0.04942
0.68279 0.35745 0.05092
0.71333 0.35934 0.05244
0.74384 0.36122 0.05399
0.78157 0.36354 0.05595
0.83451 0.36679 0.05874
0.87808 0.36945 0.06109
0.91395 0.37164 0.06306
0.94348 0.37343 0.06469
0.96778 0.37491 0.06605
0.98780 0.37612 0.06718
1.00000 0.37686 0.06786
1.00000 0.37687 0.06783
0.16080 0.36538 0.11100
0.18898 0.36549 0.11506
0.21177 0.36560 0.11504
0.23027 0.36571 0.11091
0.24599 0.36582 0.10330
0.26059 0.36592 0.09329
0.27556 0.36601 0.08221
0.29206 0.36611 0.07126
0.31079 0.36620 0.06138
0.33196 0.36629 0.05313
0.35542 0.36637 0.04667
0.37702 0.36256 0.04279
0.40769 0.36623 0.04191
0.43834 0.36916 0.04186
0.46897 0.37168 0.04233
0.49959 0.37396 0.04313
0.53020 0.37610 0.04416
0.56079 0.37815 0.04533
0.59137 0.38014 0.04662
0.62193 0.38210 0.04798
0.65248 0.38403 0.04940
0.68301 0.38595 0.05087
0.71353 0.38785 0.05238
0.74404 0.38974 0.05392
0.78175 0.39206 0.05587
0.83466 0.39531 0.05867
0.87821 0.39797 0.06103
0.91406 0.40015 0.06300
0.94357 0.40195 0.06465
0.96787 0.40342 0.06602
0.98787 0.40463 0.06715
1.00000 0.40537 0.06783
1.00000 0.40537 0.06781
0.17227 0.39580 0.11848
0.20077 0.39592 0.12278
0.22425 0.39602 0.12337
0.24357 0.39613 0.12015
0.25995 0.39623 0.11352
0.27477 0.39633 0.10433
0.28938 0.39642 0.09361
0.30489 0.39651 0.08247
0.32212 0.39660 0.07185
0.34150 0.39669 0.06242
0.36312 0.39677 0.05454
0.38679 0.39685 0.04832
0.40802 0.39263 0.04457
0.43866 0.39634 0.04367
0.46928 0.39933 0.04356
0.49989 0.40191 0.04397
0.53048 0.40424 0.04473
0.56106 0.40642 0.04572
0.59162 0.40849 0.04687
0.62217 0.41050 0.04814
0.65270 0.41247 0.04950
0.68322 0.41441 0.05092
0.71372 0.41633 0.05240
0.74421 0.41823 0.05392
0.78190 0.42056 0.05586
0.83479 0.42381 0.05865
0.87832 0.42647 0.06101
0.91415 0.42866 0.06299
0.94365 0.43045 0.06464
0.96794 0.43192 0.06601
0.98793 0.43313 0.06715
1.00000 0.43386 0.06784
1.00000 0.43387 0.06782
0.18371 0.42623 0.12596
0.21249 0.42634 0.13046
0.23657 0.42644 0.13158
0.25664 0.42654 0.12915
0.27371 0.42664 0.12345
0.28892 0.42673 0.11509
0.30345 0.42683 0.10493
0.31835 0.42691 0.09391
0.33447 0.42700 0.08290
0.35236 0.42708 0.07265
0.37229 0.42716 0.06362
0.39428 0.42723 0.05607
0.41812 0.42731 0.05004
0.43897 0.42268 0.04641
0.46958 0.42642 0.04550
0.50017 0.42948 0.04534
0.53074 0.43211 0.04570
0.56131 0.43449 0.04641
0.59186 0.43670 0.04737
0.62239 0.43880 0.04850
0.65291 0.44083 0.04975
0.68341 0.44282 0.05111
0.71390 0.44476 0.05253
0.74437 0.44668 0.05402
0.78205 0.44903 0.05592
0.83491 0.45230 0.05869
0.87842 0.45497 0.06104
0.91423 0.45715 0.06301
0.94372 0.45894 0.06467
0.96799 0.46041 0.06605
0.98798 0.46162 0.06719
1.00000 0.46235 0.06788
1.00000 0.46235 0.06787
0.19514 0.45665 0.13345
0.22414 0.45675 0.13813
0.24876 0.45685 0.13969
0.26953 0.45695 0.13796
0.28726 0.45705 0.13311
0.30295 0.45714 0.12558
0.31761 0.45723 0.11607
0.33219 0.45731 0.10537
0.34754 0.45739 0.09428
0.36425 0.45747 0.08352
0.38273 0.45755 0.07362
0.40314 0.45762 0.06496
0.42543 0.45769 0.05770
0.44940 0.45775 0.05185
0.46985 0.45271 0.04832
0.50043 0.45648 0.04739
0.53099 0.45959 0.04720
0.56154 0.46228 0.04752
0.59208 0.46471 0.04819
0.62259 0.46695 0.04911
0.65310 0.46908 0.05021
0.68359 0.47114 0.05145
0.71406 0.47313 0.05280
0.74452 0.47509 0.05422
0.78218 0.47747 0.05607
0.83501 0.48076 0.05880
0.87850 0.48344 0.06113
0.91430 0.48563 0.06310
0.94377 0.48742 0.06475
0.96803 0.48889 0.06613
0.98800 0.49010 0.06727
1.00000 0.49083 0.06796
1.00000 0.49083 0.06796
0.20653 0.48707 0.14094
0.23574 0.48717 0.14577
0.26083 0.48726 0.14773
0.28223 0.48736 0.14662
0.30062 0.48745 0.14253
0.31683 0.48754 0.13581
0.33175 0.48762 0.12699
0.34624 0.48771 0.11675
0.36109 0.48778 0.10579
0.37692 0.48786 0.09479
0.39421 0.48793 0.08431
0.41321 0.48800 0.07477
0.43402 0.48807 0.06644
0.45655 0.48813 0.05943
0.48064 0.48819 0.05373
0.50068 0.48272 0.05029
0.53123 0.48652 0.04936
0.56176 0.48968 0.04914
0.59228 0.49242 0.04941
0.62279 0.49489 0.05004
0.65328 0.49718 0.05093
0.68375 0.49934 0.05201
0.71421 0.50141 0.05324
0.74465 0.50342 0.05458
0.78229 0.50585 0.05635
0.83510 0.50918 0.05900
0.87857 0.51188 0.06129
0.91435 0.51408 0.06325
0.94380 0.51588 0.06489
0.96805 0.51736 0.06626
0.98802 0.51857 0.06741
1.00000 0.51929 0.06810
1.00000 0.51929 0.06810
0.21791 0.51748 0.14844
0.24730 0.51758 0.15341
0.27281 0.51767 0.15571
0.29479 0.51776 0.15515
0.31380 0.51785 0.15176
0.33055 0.51794 0.14579
0.34582 0.51802 0.13768
0.36038 0.51810 0.12798
0.37494 0.51817 0.11731
0.39015 0.51824 0.10629
0.40649 0.51831 0.09546
0.42430 0.51838 0.08528
0.44376 0.51844 0.07607
0.46491 0.51850 0.06804
0.48765 0.51855 0.06125
0.51182 0.51861 0.05569
0.53145 0.51271 0.05233
0.56197 0.51654 0.05140
0.59247 0.51974 0.05115
0.62296 0.52254 0.05139
0.65344 0.52505 0.05198
0.68390 0.52737 0.05284
0.71434 0.52956 0.05390
0.74477 0.53165 0.05511
0.78239 0.53415 0.05677
0.83518 0.53755 0.05931
0.87862 0.54028 0.06155
0.91438 0.54250 0.06347
0.94382 0.54431 0.06509
0.96806 0.54580 0.06646
0.98802 0.54701 0.06760
1.00000 0.54774 0.06829
1.00000 0.54774 0.06830
0.22926 0.54789 0.15594
0.25881 0.54798 0.16104
0.28470 0.54808 0.16364
0.30720 0.54816 0.16357
0.32680 0.54825 0.16081
0.34410 0.54833 0.15556
0.35977 0.54841 0.14814
0.37451 0.54848 0.13903
0.38897 0.54856 0.12875
0.40377 0.54862 0.11787
0.41939 0.54869 0.10690
0.43621 0.54875 0.09629
0.45450 0.54881 0.08641
0.47436 0.54887 0.07752
0.49580 0.54892 0.06975
0.51872 0.54897 0.06316
0.54296 0.54901 0.05772
0.56216 0.54269 0.05444
0.59265 0.54654 0.05351
0.62312 0.54979 0.05323
0.65358 0.55262 0.05344
0.68403 0.55518 0.05400
0.71446 0.55754 0.05483
0.74488 0.55975 0.05587
0.78248 0.56236 0.05737
0.83524 0.56586 0.05976
0.87866 0.56864 0.06192
0.91441 0.57089 0.06379
0.94383 0.57271 0.06538
0.96806 0.57421 0.06673
0.98800 0.57543 0.06785
1.00000 0.57616 0.06854
1.00000 0.57616 0.06856
0.24059 0.57830 0.16344
0.27028 0.57839 0.16865
0.29651 0.57848 0.17153
0.31949 0.57856 0.17190
0.33965 0.57864 0.16972
0.35748 0.57872 0.16512
0.37359 0.57880 0.15838
0.38859 0.57887 0.14988
0.40308 0.57894 0.14007
0.41763 0.57900 0.12944
0.43273 0.57906 0.11849
0.44877 0.57912 0.10764
0.46606 0.57918 0.09728
0.48478 0.57923 0.08770
0.50499 0.57928 0.07909
0.52668 0.57933 0.07157
0.54975 0.57937 0.06515
0.57405 0.57941 0.05982
0.59281 0.57265 0.05662
0.62327 0.57652 0.05569
0.65372 0.57980 0.05539
0.68415 0.58268 0.05557
0.71456 0.58528 0.05610
0.74496 0.58767 0.05691
0.78255 0.59043 0.05819
0.83528 0.59407 0.06037
0.87869 0.59693 0.06241
0.91441 0.59922 0.06422
0.94382 0.60107 0.06577
0.96804 0.60258 0.06709
0.98798 0.60382 0.06820
1.00000 0.60456 0.06888
1.00000 0.60455 0.06891
0.25189 0.60870 0.17095
0.28172 0.60879 0.17627
0.30825 0.60887 0.17939
0.33168 0.60896 0.18015
0.35235 0.60903 0.17850
0.37071 0.60911 0.17452
0.38727 0.60918 0.16842
0.40258 0.60925 0.16053
0.41720 0.60932 0.15123
0.43164 0.60938 0.14095
0.44638 0.60944 0.13013
0.46183 0.60949 0.11920
0.47830 0.60954 0.10853
0.49602 0.60959 0.09843
0.51512 0.60964 0.08913
0.53564 0.60968 0.08079
0.55755 0.60972 0.07348
0.58074 0.60976 0.06723
0.60509 0.60979 0.06200
0.62340 0.60259 0.05886
0.65383 0.60647 0.05793
0.68425 0.60980 0.05762
0.71465 0.61272 0.05777
0.74504 0.61535 0.05828
0.78260 0.61833 0.05928
0.83531 0.62217 0.06118
0.87869 0.62513 0.06307
0.91440 0.62748 0.06478
0.94380 0.62937 0.06628
0.96800 0.63091 0.06755
0.98793 0.63216 0.06863
1.00000 0.63291 0.06931
1.00000 0.63290 0.06934
0.26317 0.63910 0.17847
0.29311 0.63919 0.18388
0.31992 0.63927 0.18723
0.34376 0.63935 0.18834
0.36491 0.63942 0.18716
0.38377 0.63949 0.18375
0.40079 0.63956 0.17827
0.41646 0.63963 0.17098
0.43127 0.63969 0.16221
0.44572 0.63975 0.15234
0.46025 0.63980 0.14176
0.47525 0.63986 0.13088
0.49107 0.63991 0.12004
0.50795 0.63995 0.10958
0.52606 0.63999 0.09973
0.54550 0.64003 0.09070
0.56630 0.64007 0.08260
0.58839 0.64010 0.07549
0.61170 0.64013 0.06939
0.63608 0.64016 0.06425
0.65394 0.63251 0.06117
0.68434 0.63641 0.06025
0.71473 0.63977 0.05992
0.74510 0.64273 0.06005
0.78264 0.64600 0.06069
0.83533 0.65011 0.06224
0.87869 0.65322 0.06392
0.91438 0.65565 0.06551
0.94376 0.65760 0.06692
0.96795 0.65917 0.06814
0.98787 0.66044 0.06919
1.00000 0.66121 0.06985
1.00000 0.66120 0.06989
0.27442 0.66950 0.18599
0.30448 0.66958 0.19149
0.33154 0.66966 0.19504
0.35575 0.66973 0.19648
0.37736 0.66981 0.19574
0.39670 0.66987 0.19285
0.41417 0.66994 0.18795
0.43022 0.67000 0.18125
0.44528 0.67006 0.17302
0.45981 0.67012 0.16359
0.47424 0.67017 0.15332
0.48894 0.67022 0.14258
0.50424 0.67026 0.13171
0.52043 0.67031 0.12102
0.53769 0.67035 0.11077
0.55617 0.67038 0.10117
0.57592 0.67041 0.09239
0.59695 0.67044 0.08452
0.61921 0.67047 0.07760
0.64261 0.67049 0.07163
0.66702 0.67051 0.06657
0.68441 0.66241 0.06354
0.71478 0.66633 0.06263
0.74514 0.66972 0.06229
0.78267 0.67338 0.06248
0.83533 0.67786 0.06357
0.87867 0.68116 0.06499
0.91434 0.68371 0.06642
0.94371 0.68573 0.06773
0.96789 0.68735 0.06888
0.98780 0.68866 0.06988
1.00000 0.68945 0.07052
1.00000 0.68944 0.07056
0.28566 0.69989 0.19352
0.31581 0.69997 0.19910
0.34310 0.70005 0.20283
0.36766 0.70012 0.20457
0.38969 0.70019 0.20423
0.40949 0.70025 0.20184
0.42741 0.70031 0.19748
0.44385 0.70037 0.19134
0.45920 0.70043 0.18364
0.47388 0.70048 0.17469
0.48829 0.70053 0.16479
0.50280 0.70058 0.15427
0.51772 0.70062 0.14346
0.53335 0.70066 0.13265
0.54989 0.70069 0.12213
0.56752 0.70073 0.11210
0.58632 0.70076 0.10275
0.60635 0.70078 0.09421
0.62759 0.70081 0.08654
0.65000 0.70083 0.07979
0.67347 0.70084 0.07394
0.69791 0.70085 0.06897
0.71483 0.69230 0.06598
0.74517 0.69623 0.06508
0.78268 0.70040 0.06472
0.83531 0.70535 0.06525
0.87863 0.70892 0.06634
0.91429 0.71163 0.06756
0.94364 0.71375 0.06873
0.96781 0.71543 0.06979
0.98771 0.71678 0.07072
1.00000 0.71760 0.07133
1.00000 0.71759 0.07139
0.29686 0.73028 0.20105
0.32711 0.73036 0.20671
0.35462 0.73043 0.21061
0.37949 0.73050 0.21262
0.40192 0.73057 0.21265
0.42216 0.73063 0.21071
0.44052 0.73069 0.20687
0.45734 0.73074 0.20126
0.47301 0.73079 0.19410
0.48790 0.73084 0.18563
0.50237 0.73089 0.17613
0.51677 0.73093 0.16589
0.53143 0.73097 0.15522
0.54661 0.73101 0.14441
0.56256 0.73104 0.13372
0.57945 0.73107 0.12338
0.59741 0.73110 0.11358
0.61651 0.73112 0.10446
0.63679 0.73114 0.09614
0.65822 0.73115 0.08866
0.68075 0.73117 0.08207
0.70429 0.73118 0.07633
0.72874 0.73118 0.07143
0.74519 0.72216 0.06849
0.78268 0.72697 0.06747
0.83529 0.73254 0.06731
0.87858 0.73645 0.06800
0.91422 0.73937 0.06896
0.94356 0.74161 0.06996
0.96772 0.74338 0.07091
0.98761 0.74479 0.07175
1.00000 0.74565 0.07233
1.00000 0.74564 0.07239
0.31069 0.76787 0.21037
0.34104 0.76794 0.21612
0.36879 0.76801 0.22021
0.39403 0.76807 0.22253
0.41692 0.76813 0.22298
0.43766 0.76819 0.22156
0.45654 0.76825 0.21831
0.47386 0.76830 0.21334
0.48994 0.76835 0.20681
0.50512 0.76839 0.19894
0.51975 0.76843 0.18996
0.53413 0.76847 0.18013
0.54858 0.76851 0.16973
0.56337 0.76854 0.15903
0.57873 0.76857 0.14826
0.59487 0.76859 0.13767
0.61192 0.76862 0.12746
0.63001 0.76863 0.11778
0.64919 0.76865 0.10877
0.66947 0.76866 0.10051
0.69085 0.76867 0.09306
0.71328 0.76868 0.08645
0.73667 0.76868 0.08065
0.76095 0.76868 0.07566
0.78265 0.75908 0.07168
0.83523 0.76564 0.07049
0.87850 0.77011 0.07055
0.91412 0.77336 0.07112
0.94344 0.77582 0.07186
0.96758 0.77773 0.07262
0.98746 0.77924 0.07333
1.00000 0.78017 0.07384
1.00000 0.78016 0.07391
0.33005 0.82064 0.22348
0.36053 0.82071 0.22933
0.38859 0.82077 0.23367
0.41429 0.82083 0.23637
0.43775 0.82088 0.23735
0.45916 0.82093 0.23658
0.47873 0.82098 0.23409
0.49672 0.82103 0.22995
0.51340 0.82107 0.22427
0.52907 0.82111 0.21723
0.54401 0.82115 0.20902
0.55853 0.82118 0.19984
0.57288 0.82121 0.18993
0.58734 0.82124 0.17953
0.60213 0.82126 0.16887
0.61747 0.82128 0.15816
0.63351 0.82130 0.14761
0.65040 0.82131 0.13739
0.66824 0.82132 0.12765
0.68708 0.82133 0.11850
0.70695 0.82133 0.11004
0.72785 0.82133 0.10231
0.74975 0.82133 0.09536
0.77259 0.82132 0.08918
0.80203 0.82131 0.08259
0.83511 0.81087 0.07634
0.87835 0.81642 0.07527
0.91394 0.82033 0.07510
0.94323 0.82322 0.07535
0.96736 0.82542 0.07577
0.98722 0.82713 0.07623
1.00000 0.82820 0.07661
1.00000 0.82818 0.07669
0.34594 0.86410 0.23428
0.37652 0.86416 0.24022
0.40480 0.86422 0.24474
0.43084 0.86427 0.24773
0.45474 0.86432 0.24909
0.47665 0.86437 0.24880
0.49676 0.86441 0.24688
0.51528 0.86445 0.24336
0.53246 0.86449 0.23835
0.54856 0.86453 0.23197
0.56383 0.86456 0.22439
0.57854 0.86459 0.21578
0.59295 0.86461 0.20635
0.60729 0.86463 0.19630
0.62180 0.86465 0.18586
0.63667 0.86467 0.17521
0.65209 0.86468 0.16456
0.66819 0.86469 0.15408
0.68511 0.86469 0.14393
0.70292 0.86469 0.13424
0.72168 0.86469 0.12511
0.74142 0.86469 0.11662
0.76213 0.86468 0.10883
0.78380 0.86467 0.10176
0.81184 0.86465 0.09404
0.85332 0.86462 0.08506
0.87819 0.85348 0.08033
0.91375 0.85815 0.07939
0.94303 0.86153 0.07911
0.96713 0.86407 0.07915
0.98698 0.86602 0.07935
1.00000 0.86724 0.07957
1.00000 0.86722 0.07966
0.35899 0.89989 0.24319
0.38964 0.89994 0.24920
0.41809 0.90000 0.25385
0.44439 0.90005 0.25705
0.46862 0.90010 0.25870
0.49092 0.90014 0.25878
0.51144 0.90018 0.25729
0.53039 0.90022 0.25425
0.54798 0.90025 0.24976
